Newaita/actions/scalable/document-new.svg

<?xml version="1.0" encoding="UTF-8"?>
<svg xmlns="http://www.w3.org/2000/svg" xmlns:xlink="http://www.w3.org/1999/xlink" width="512pt" height="512pt" viewBox="0 0 512 512" version="1.1">
<g id="surface1">
<path style=" stroke:none;fill-rule:nonzero;fill:rgb(47.058824%,56.470591%,61.176473%);fill-opacity:1;" d="M 137.597656 490.878906 L 137.597656 25.167969 L 169.347656 25.167969 L 169.347656 490.878906 Z M 137.597656 490.878906 "/>
<path style=" stroke:none;fill-rule:nonzero;fill:rgb(25.882354%,25.882354%,25.882354%);fill-opacity:1;" d="M 254.023438 25.167969 C 254.019531 25.167969 254.015625 25.167969 254.011719 25.167969 L 105.851562 25.167969 C 82.394531 25.167969 63.515625 44.050781 63.515625 67.507812 L 63.515625 448.542969 C 63.515625 471.996094 82.394531 490.878906 105.851562 490.878906 L 402.210938 490.878906 C 425.667969 490.878906 444.550781 471.996094 444.550781 448.542969 L 444.550781 205.101562 L 444.542969 205.101562 L 444.542969 194.519531 C 444.542969 190.308594 442.867188 186.269531 439.890625 183.292969 L 286.417969 29.820312 C 283.441406 26.839844 279.402344 25.167969 275.191406 25.167969 Z M 116.433594 56.921875 L 253.8125 56.921875 L 253.8125 171.316406 C 253.8125 194.773438 272.695312 213.65625 296.148438 213.65625 L 412.789062 213.65625 L 412.789062 215.6875 C 412.792969 215.757812 412.792969 215.832031 412.796875 215.902344 L 412.796875 437.957031 C 412.796875 449.6875 403.355469 459.125 391.628906 459.125 L 116.433594 459.125 C 104.707031 459.125 95.265625 449.6875 95.265625 437.957031 L 95.265625 78.089844 C 95.265625 66.363281 104.707031 56.921875 116.433594 56.921875 Z M 285.5625 73.867188 L 393.597656 181.902344 L 306.734375 181.902344 C 295.003906 181.902344 285.5625 172.460938 285.5625 160.734375 Z M 285.5625 73.867188 "/>
</g>
</svg>

<svg xmlns="http://www.w3.org/2000/svg" width="512pt" height="512pt" viewBox="0 0 512 512"><path d="M137.598 490.879V25.168h31.75v465.71zm0 0" fill="#78909c"/><path d="M254.023 25.168H105.852c-23.457 0-42.336 18.883-42.336 42.34v381.035c0 23.453 18.879 42.336 42.336 42.336H402.21c23.457 0 42.34-18.883 42.34-42.336V205.102h-.008V194.52c0-4.211-1.676-8.25-4.652-11.227L286.418 29.82a15.864 15.864 0 0 0-11.227-4.652zm-137.59 31.754h137.38v114.394c0 23.457 18.882 42.34 42.335 42.34H412.79v2.031c.004.07.004.145.008.215v222.055a21.12 21.12 0 0 1-21.168 21.168H116.434a21.12 21.12 0 0 1-21.168-21.168V78.09a21.122 21.122 0 0 1 21.168-21.168zm169.13 16.945l108.035 108.035h-86.864a21.123 21.123 0 0 1-21.171-21.168zm0 0" fill="#424242"/></svg>
